X:1
T:[ID 9-11b]
T:[ID 9-11b]
T:Bezeichnung standardisiert: Walzer Waltzer
T:Urheber unbekannt Datum in der hier transkribierten schriftlichen Quelle: 1796
C:Urheber unbekannt
C:Datum in der hier transkribierten schriftlichen Quelle: 1796
L:1/8
M:3/8
K:D
V:1 treble 
V:1
 Ddd | faf | (d/c/B/A/B/c/) | (d/c/d/e/)d | Ddd | faf | (d/c/B/A/B/c/) | d3 :: a | agf | agd | %11
 (c/d/e/d/c/B/) | A/G/F/E/D | Ddd | faf | d/c/B/A/B/c/ | d3 :| %17

